public/loveMore.svg

<svg width="130" height="136" viewBox="0 0 130 136" fill="none" xmlns="http://www.w3.org/2000/svg">
<path d="M64.7678 0.000320435C64.7624 0.000320435 64.7558 -0.000976562 64.7504 -0.000976562C33.8238 0.0163574 6.46644 20.8883 6.46644 46.543C6.46644 56.6377 14.3851 65.6283 24.5731 66.4963C18.5891 56.6363 18.5931 43.0563 26.0518 31.0657C29.8424 24.951 34.9331 20.003 40.4638 15.9377C41.7798 14.979 43.3678 16.8257 42.2011 17.9737C33.2225 26.807 26.0984 38.8363 27.7291 51.5203C28.2118 58.063 31.3384 63.2123 35.9278 66.583H49.4211C46.5638 61.015 45.1598 54.6617 45.0678 48.3617C45.0518 42.579 46.7464 36.8977 48.6478 31.491C50.6571 26.1817 53.3998 21.0883 57.1931 16.855C57.6464 16.3523 58.4211 16.3083 58.9264 16.7603C59.3904 17.1777 59.4638 17.8697 59.1198 18.3697C50.6278 31.8883 48.1918 54.4643 59.6145 66.583H64.7504H64.7678H64.7865H69.9211C81.3331 54.4883 78.9118 31.8817 70.4171 18.3697C69.5611 17.1483 71.3465 15.7204 72.3438 16.855C79.7278 25.4964 83.9918 37.0457 84.4691 48.3603C84.3758 54.6857 82.9678 61.0217 80.1078 66.583H93.7585C93.9291 66.455 94.1131 66.3444 94.2784 66.2124C103.618 58.807 103.749 44.063 98.7345 33.6403C96.0678 27.903 92.0118 22.6603 87.3358 17.9737C86.1544 16.8763 87.7998 14.9377 89.0731 15.9377C100.496 24.1123 109.901 37.1617 109.245 52.047C109.145 57.5017 107.617 62.3777 105.061 66.491C115.202 65.575 123.072 56.6057 123.072 46.543C123.072 20.8883 95.7131 0.0176544 64.7865 0.000320435C64.7798 0.000320435 64.7744 0.000320435 64.7678 0.000320435ZM42.1118 81.0577C50.1464 94.855 46.3558 115.514 31.7051 123.291C26.9944 125.828 21.4571 126.891 16.0838 126.232C14.7104 126.056 13.4344 127.006 13.2171 128.386C12.9958 129.79 13.9558 131.108 15.3598 131.33C44.9464 135.668 61.8344 101.871 48.7651 77.483C47.9704 76.0377 46.7424 75.435 45.5264 75.435C42.9958 75.435 40.5171 78.039 42.1118 81.0577ZM80.7705 77.4737C71.4878 94.7057 77.0091 119.543 95.1998 128.407C101.053 131.307 107.769 132.338 114.169 131.33C115.533 131.114 116.494 129.854 116.325 128.472C116.15 127.058 114.86 126.054 113.446 126.232C108.072 126.891 102.534 125.828 97.8238 123.291C83.1731 115.516 79.3838 94.8537 87.4171 81.0577C89.0064 78.0244 86.5371 75.4377 84.0105 75.4364C82.7944 75.4364 81.5665 76.0363 80.7705 77.4737ZM60.9891 79.2697L62.0184 133.338C62.1411 136.89 67.3958 136.864 67.5105 133.338L68.5411 79.2697C68.5171 76.731 66.6438 75.4657 64.7691 75.4657C62.8891 75.4657 61.0091 76.7364 60.9891 79.2697ZM100.884 76.6243C93.9078 83.4097 91.7184 94.7897 96.4238 103.426C104.892 119.278 130.613 116.383 129.412 96.7337C129.392 96.571 129.336 96.4377 129.273 96.311C128.924 94.903 128.013 93.643 126.622 92.9257C124.066 91.611 120.928 92.6177 119.613 95.1737C118.297 97.7297 119.304 100.867 121.86 102.183C123.001 102.771 124.253 102.871 125.413 102.602C121.949 109.09 112.716 110.9 106.334 105.706C98.7571 99.927 100.102 88.2097 106.272 81.9177C108.789 79.159 106.334 75.5337 103.456 75.5323C102.596 75.5323 101.698 75.8563 100.884 76.6243ZM23.2451 81.903C31.5784 90.351 29.8971 105.988 17.0158 108.515C11.8198 109.748 6.6091 107.008 4.16377 102.612C5.31043 102.868 6.54377 102.763 7.67044 102.183C10.2264 100.867 11.2318 97.7297 9.9171 95.1737C8.60244 92.6177 5.46378 91.611 2.90644 92.9257C1.49978 93.651 0.585094 94.9323 0.246428 96.3603C0.191761 96.479 0.135761 96.5977 0.117094 96.7337C-0.682906 102.707 2.67311 109.211 8.44644 112.002C17.3078 116.391 28.5304 111.964 33.1064 103.426C37.8118 94.7897 35.6211 83.4097 28.6451 76.6243C27.8358 75.8577 26.9398 75.5337 26.0798 75.5337C23.2078 75.5337 20.7411 79.139 23.2451 81.903Z" fill="url(#paint0_linear_296_104)"/>
<defs>
<linearGradient id="paint0_linear_296_104" x1="4.12613e-05" y1="67.9958" x2="129.453" y2="67.9958" gradientUnits="userSpaceOnUse">
<stop stop-color="#F58420"/>
<stop offset="0.0629515" stop-color="#F58420"/>
<stop offset="1" stop-color="#FCB319"/>
</linearGradient>
</defs>
</svg>

<svg width="130" height="136" viewBox="0 0 130 136" fill="none" xmlns="http://www.w3.org/2000/svg"><path d="M64.768 0h-.018C33.824.016 6.466 20.889 6.466 46.543c0 10.095 7.92 19.085 18.107 19.953-5.984-9.86-5.98-23.44 1.479-35.43 3.79-6.115 8.881-11.063 14.412-15.128 1.316-.959 2.904.888 1.737 2.036-8.979 8.833-16.103 20.862-14.472 33.546.483 6.543 3.61 11.692 8.199 15.063H49.42c-2.857-5.568-4.261-11.921-4.353-18.221-.016-5.783 1.678-11.464 3.58-16.871 2.01-5.31 4.752-10.403 8.545-14.636a1.23 1.23 0 0 1 1.733-.095 1.23 1.23 0 0 1 .194 1.61c-8.492 13.518-10.928 36.094.495 48.213H69.92c11.412-12.095 8.99-34.701.496-48.213-.856-1.222.93-2.65 1.927-1.515 7.384 8.641 11.648 20.19 12.125 31.505-.093 6.326-1.501 12.662-4.361 18.223h13.65c.171-.128.355-.239.52-.37 9.34-7.406 9.471-22.15 4.456-32.573-2.666-5.737-6.722-10.98-11.398-15.666-1.182-1.098.464-3.036 1.737-2.036 11.423 8.174 20.828 21.224 20.172 36.109-.1 5.455-1.628 10.33-4.184 14.444 10.141-.916 18.011-9.885 18.011-19.948C123.072 20.888 95.713.018 64.787 0h-.02ZM42.112 81.058c8.034 13.797 4.244 34.456-10.407 42.233a26.42 26.42 0 0 1-15.621 2.941 2.574 2.574 0 0 0-.724 5.098c29.586 4.338 46.474-29.459 33.405-53.847-.795-1.445-2.023-2.048-3.239-2.048-2.53 0-5.009 2.604-3.414 5.623Zm38.658-3.584c-9.282 17.232-3.76 42.069 14.43 50.933 5.853 2.9 12.569 3.931 18.969 2.923a2.58 2.58 0 0 0 2.156-2.858 2.577 2.577 0 0 0-2.879-2.24 26.422 26.422 0 0 1-15.622-2.941c-14.65-7.775-18.44-28.437-10.407-42.233 1.59-3.034-.88-5.62-3.407-5.622-1.216 0-2.444.6-3.24 2.038ZM60.99 79.27l1.028 54.068c.123 3.552 5.378 3.526 5.492 0l1.031-54.068c-.024-2.539-1.897-3.804-3.772-3.804-1.88 0-3.76 1.27-3.78 3.804Zm39.894-2.646c-6.976 6.786-9.166 18.166-4.46 26.802 8.468 15.852 34.189 12.957 32.988-6.692a1.275 1.275 0 0 0-.139-.423c-.349-1.408-1.26-2.668-2.651-3.385a5.205 5.205 0 0 0-4.762 9.257c1.141.588 2.393.688 3.553.419-3.464 6.488-12.697 8.298-19.079 3.104-7.577-5.779-6.232-17.496-.062-23.788 2.517-2.759.062-6.384-2.816-6.386-.86 0-1.758.324-2.572 1.092Zm-77.639 5.279c8.333 8.448 6.652 24.085-6.23 26.612-5.195 1.233-10.406-1.507-12.851-5.903 1.146.256 2.38.151 3.506-.429a5.205 5.205 0 0 0-4.764-9.257C1.5 93.65.586 94.932.246 96.36c-.054.119-.11.238-.129.374-.8 5.973 2.556 12.477 8.33 15.268 8.86 4.389 20.083-.038 24.66-8.576 4.705-8.636 2.514-20.016-4.462-26.802-.81-.766-1.705-1.09-2.565-1.09-2.872 0-5.339 3.605-2.835 6.369Z" fill="url(#a)"/><defs><linearGradient id="a" x1="0" y1="67.996" x2="129.453" y2="67.996" gradientUnits="userSpaceOnUse"><stop stop-color="#F58420"/><stop offset=".063" stop-color="#F58420"/><stop offset="1" stop-color="#FCB319"/></linearGradient></defs></svg>
